docs/img/stages-work13.svg

<svg width="192" height="191" viewBox="0 0 192 191" fill="none" xmlns="http://www.w3.org/2000/svg">
<path d="M95.7157 0C148.447 4.92883e-06 191.33 42.7393 191.33 95.2942C191.33 147.849 148.447 190.588 95.7157 190.588C42.9843 190.588 0.101558 147.849 0.101563 95.2942C0.101567 42.7392 42.9843 -4.92882e-06 95.7157 0ZM95.7157 188.85C147.421 188.85 189.483 146.929 189.483 95.3964C189.483 43.864 147.421 1.94269 95.7157 1.94269C44.0102 1.94268 1.94819 43.864 1.94818 95.3964C1.94818 146.929 43.9076 188.85 95.7157 188.85Z" fill="#E1C78C"/>
<path d="M119.723 71.6795L157.185 34.2596L156.751 33.8252L119.288 71.2451L119.723 71.6795Z" fill="#E1C78C"/>
<path d="M34.3983 156.813L71.8505 119.383L71.4157 118.949L33.9635 156.379L34.3983 156.813Z" fill="#E1C78C"/>
<path d="M68.3992 78.4404L78.3592 76.0404V116H80.2792V73.6404L68.3992 76.4004V78.4404Z" fill="#E1C78C"/>
<path d="M103.312 94.5804C105.072 94.5804 106.732 94.3404 108.292 93.8604C109.892 93.3804 111.292 92.6804 112.492 91.7604C113.732 90.8404 114.712 89.7404 115.432 88.4604C116.152 87.1804 116.512 85.7404 116.512 84.1404C116.512 82.3004 116.072 80.5604 115.192 78.9204C114.352 77.2804 113.092 75.9604 111.412 74.9604C109.772 73.9204 107.752 73.4004 105.352 73.4004C103.072 73.4004 101.072 73.8804 99.3517 74.8404C97.6317 75.7604 96.2917 77.0404 95.3317 78.6804C94.4117 80.3204 93.9517 82.2404 93.9517 84.4404H95.8117C95.8117 82.6404 96.2117 81.0604 97.0117 79.7004C97.8517 78.3004 98.9717 77.2004 100.372 76.4004C101.812 75.6004 103.472 75.2004 105.352 75.2004C107.352 75.2004 109.032 75.6204 110.392 76.4604C111.792 77.3004 112.832 78.4204 113.512 79.8204C114.232 81.1804 114.592 82.6404 114.592 84.2004C114.592 85.5604 114.252 86.8004 113.572 87.9204C112.932 89.0004 112.052 89.9404 110.932 90.7404C109.852 91.5404 108.652 92.1604 107.332 92.6004C106.012 93.0404 104.672 93.2604 103.312 93.2604V94.5804ZM105.112 116.6C107.632 116.6 109.832 116.14 111.712 115.22C113.592 114.26 115.052 112.92 116.092 111.2C117.172 109.48 117.712 107.52 117.712 105.32C117.712 103.28 117.292 101.54 116.452 100.1C115.612 98.6604 114.492 97.4804 113.092 96.5604C111.732 95.6004 110.192 94.8804 108.472 94.4004C106.792 93.8804 105.072 93.6204 103.312 93.6204V95.0004C104.672 95.0004 106.072 95.2204 107.512 95.6604C108.952 96.0604 110.292 96.6804 111.532 97.5204C112.812 98.3604 113.832 99.4204 114.592 100.7C115.392 101.94 115.792 103.42 115.792 105.14C115.792 106.98 115.352 108.64 114.472 110.12C113.592 111.56 112.352 112.7 110.752 113.54C109.152 114.34 107.272 114.74 105.112 114.74C102.832 114.74 100.872 114.3 99.2317 113.42C97.5917 112.54 96.3117 111.38 95.3917 109.94C94.5117 108.46 94.0717 106.78 94.0717 104.9H92.1517C92.1517 106.54 92.4317 108.08 92.9917 109.52C93.5917 110.92 94.4517 112.16 95.5717 113.24C96.7317 114.28 98.0917 115.1 99.6517 115.7C101.252 116.3 103.072 116.6 105.112 116.6Z" fill="#E1C78C"/>
</svg>

<svg width="192" height="191" viewBox="0 0 192 191" fill="none" xmlns="http://www.w3.org/2000/svg"><path d="M95.716 0c52.731 0 95.614 42.74 95.614 95.294 0 52.555-42.883 95.294-95.614 95.294-52.732 0-95.614-42.739-95.614-95.294S42.984 0 95.716 0zm0 188.85c51.705 0 93.767-41.921 93.767-93.454 0-51.532-42.062-93.453-93.767-93.453-51.706 0-93.768 41.921-93.768 93.453 0 51.533 41.96 93.454 93.768 93.454z" fill="#E1C78C"/><path d="M119.723 71.68l37.462-37.42-.434-.435-37.463 37.42.435.434zm-85.325 85.133l37.452-37.43-.434-.434-37.452 37.43.434.434zM68.4 78.44l9.96-2.4V116h1.92V73.64L68.4 76.4v2.04zm34.912 16.14c1.76 0 3.42-.24 4.98-.72 1.6-.48 3-1.18 4.2-2.1 1.24-.92 2.22-2.02 2.94-3.3.72-1.28 1.08-2.72 1.08-4.32 0-1.84-.44-3.58-1.32-5.22-.84-1.64-2.1-2.96-3.78-3.96-1.64-1.04-3.66-1.56-6.06-1.56-2.28 0-4.28.48-6 1.44-1.72.92-3.06 2.2-4.02 3.84-.92 1.64-1.38 3.56-1.38 5.76h1.86c0-1.8.4-3.38 1.2-4.74.84-1.4 1.96-2.5 3.36-3.3 1.44-.8 3.1-1.2 4.98-1.2 2 0 3.68.42 5.04 1.26 1.4.84 2.44 1.96 3.12 3.36a9.222 9.222 0 011.08 4.38c0 1.36-.34 2.6-1.02 3.72-.64 1.08-1.52 2.02-2.64 2.82-1.08.8-2.28 1.42-3.6 1.86-1.32.44-2.66.66-4.02.66v1.32zm1.8 22.02c2.52 0 4.72-.46 6.6-1.38 1.88-.96 3.34-2.3 4.38-4.02 1.08-1.72 1.62-3.68 1.62-5.88 0-2.04-.42-3.78-1.26-5.22-.84-1.44-1.96-2.62-3.36-3.54-1.36-.96-2.9-1.68-4.62-2.16-1.68-.52-3.4-.78-5.16-.78V95c1.36 0 2.76.22 4.2.66 1.44.4 2.78 1.02 4.02 1.86 1.28.84 2.3 1.9 3.06 3.18.8 1.24 1.2 2.72 1.2 4.44 0 1.84-.44 3.5-1.32 4.98-.88 1.44-2.12 2.58-3.72 3.42-1.6.8-3.48 1.2-5.64 1.2-2.28 0-4.24-.44-5.88-1.32-1.64-.88-2.92-2.04-3.84-3.48-.88-1.48-1.32-3.16-1.32-5.04h-1.92c0 1.64.28 3.18.84 4.62.6 1.4 1.46 2.64 2.58 3.72 1.16 1.04 2.52 1.86 4.08 2.46 1.6.6 3.42.9 5.46.9z" fill="#E1C78C"/></svg>
